build/img/icon_star.svg

<svg width="24" height="24" viewBox="0 0 24 24" fill="none" xmlns="http://www.w3.org/2000/svg">
<path fill-rule="evenodd" clip-rule="evenodd" d="M12 18.27L16.151 20.7754C16.9083 21.2325 17.8425 20.5535 17.6416 19.692L16.54 14.97L20.2086 11.7919C20.8772 11.2127 20.5198 10.1144 19.6384 10.0396L14.81 9.63L12.9207 5.17237C12.5761 4.35934 11.4239 4.35934 11.0793 5.17237L9.19 9.63L4.36163 10.0396C3.4802 10.1144 3.1228 11.2127 3.79139 11.7919L7.46 14.97L6.35841 19.692C6.15745 20.5535 7.09168 21.2325 7.849 20.7754L12 18.27Z" fill="#9B8869"/>
<mask id="mask0" mask-type="alpha" maskUnits="userSpaceOnUse" x="3" y="4" width="18" height="17">
<path fill-rule="evenodd" clip-rule="evenodd" d="M12 18.27L16.151 20.7754C16.9083 21.2325 17.8425 20.5535 17.6416 19.692L16.54 14.97L20.2086 11.7919C20.8772 11.2127 20.5198 10.1144 19.6384 10.0396L14.81 9.63L12.9207 5.17237C12.5761 4.35934 11.4239 4.35934 11.0793 5.17237L9.19 9.63L4.36163 10.0396C3.4802 10.1144 3.1228 11.2127 3.79139 11.7919L7.46 14.97L6.35841 19.692C6.15745 20.5535 7.09168 21.2325 7.849 20.7754L12 18.27Z" fill="white"/>
</mask>
<g mask="url(#mask0)">
<rect width="24" height="24" fill="#9B8869"/>
</g>
</svg>

<svg width="24" height="24" fill="none" xmlns="http://www.w3.org/2000/svg"><path fill-rule="evenodd" clip-rule="evenodd" d="M12 18.27l4.151 2.505c.757.458 1.692-.221 1.49-1.083L16.54 14.97l3.669-3.178c.668-.58.31-1.678-.57-1.752l-4.829-.41-1.89-4.458c-.344-.813-1.496-.813-1.84 0L9.19 9.63l-4.828.41c-.882.074-1.24 1.173-.57 1.752L7.46 14.97l-1.102 4.722c-.2.861.734 1.54 1.491 1.083L12 18.27z" fill="#9B8869"/><mask id="a" maskUnits="userSpaceOnUse" x="3" y="4" width="18" height="17"><path fill-rule="evenodd" clip-rule="evenodd" d="M12 18.27l4.151 2.505c.757.458 1.692-.221 1.49-1.083L16.54 14.97l3.669-3.178c.668-.58.31-1.678-.57-1.752l-4.829-.41-1.89-4.458c-.344-.813-1.496-.813-1.84 0L9.19 9.63l-4.828.41c-.882.074-1.24 1.173-.57 1.752L7.46 14.97l-1.102 4.722c-.2.861.734 1.54 1.491 1.083L12 18.27z" fill="#fff"/></mask><g mask="url(#a)"><path fill="#9B8869" d="M0 0h24v24H0z"/></g></svg>
